assets/img/icons/icn-facebook.svg

<svg width="10" height="19" xmlns="http://www.w3.org/2000/svg"><path d="M6.137 18.993H2.046V9.499H.001V6.226h2.045V4.262c0-2.669 1.155-4.258 4.433-4.258h2.73v3.273H7.504c-1.278 0-1.362.458-1.362 1.312l-.005 1.637h3.092l-.362 3.273h-2.73v9.494z" fill="#3B5998" fill-rule="evenodd"/></svg>

<?xml version="1.0" encoding="UTF-8"?>
<svg width="10px" height="19px" viewBox="0 0 10 19" version="1.1" xmlns="http://www.w3.org/2000/svg" xmlns:xlink="http://www.w3.org/1999/xlink">
    <!-- Generator: Sketch 52 (66869) - http://www.bohemiancoding.com/sketch -->
    <title>Shape</title>
    <desc>Created with Sketch.</desc>
    <g id="wireframe" stroke="none" stroke-width="1" fill="none" fill-rule="evenodd">
        <g id="Desktop-HD-Copy-2" transform="translate(-635.000000, -2550.000000)" fill="#3B5998">
            <g id="footer" transform="translate(0.000000, 2391.000000)">
                <g id="line" transform="translate(635.000000, 159.000000)">
                    <g id="facebook">
                        <path d="M6.137,18.993 L2.046,18.993 L2.046,9.499 L0.001,9.499 L0.001,6.226 L2.046,6.226 L2.046,4.262 C2.046,1.593 3.201,0.004 6.479,0.004 L9.209,0.004 L9.209,3.277 L7.504,3.277 C6.226,3.277 6.142,3.735 6.142,4.589 L6.137,6.226 L9.229,6.226 L8.867,9.499 L6.137,9.499 L6.137,18.993 L6.137,18.993 Z" id="Shape"></path>
                    </g>
                </g>
            </g>
        </g>
    </g>
</svg>
